X:1
T:Title
%%score ( 1 2 ) 3
L:1/8
Q:1/4=100
M:4/4
K:A
V:1 treble nm="Grand Piano, Soprano"
V:2 treble 
V:3 bass nm="Choir Pad, Jamestown, CMD"
V:1
 [CA][DB] [Ec]2 [Ec]2 [Ec]2 | [Fd][Ec] [DB]2 [DB]2 [DB]2 | [B,G][CA] [DB]2 [DB]2 [DB]2 | %3
w: By~Adam~Geibel,~1896 * * * *|||
 [Ec][DB] [CA]2 [CA]2 [CA]2 | [CA][DB] [Ec]2 [Ec]2 [Ec]2 | [=Ge]2 [Fd]2 [DF]2 [FA]2 | %6
w: |||
 [Fd]2 [Ec]2- [Ec][CA] [DB]2 | [DB]2 [CA]6 | [CA][DB] [Ec]2- [Ec][CA] [Ec]2 | z2 e6 | %10
w: ||||
 [CA][DB] [Ec]2- [Ec][CA] [Ec]2 | z2 B6 | [CA][DB] [Ec]2 [Ec]2 [Ec]2 | [=Ge]2 [Fd]2 [DF]2 [FA]2 | %14
w: ||||
 [Fd]2 [Ec]2- [Ec][CA] [DB]2 | [DB]2 [CA]6- | [CA]2 z2 z4 |] %17
w: |||
V:2
 x8 | x8 | x8 | x8 | x8 | x8 | x8 | x8 | x8 | [Ed]2 A2 A2 A2 | x8 | [Ee]2 E2 E2 E2 | x8 | x8 | x8 | %15
 x8 | x8 |] %17
V:3
 [A,,E,]2 [A,,A,]2 [A,,A,]2 [A,,A,]2 | [A,,A,]2 [E,G,]2 [E,G,]2 [E,G,]2 | %2
 E,2 [E,G,]2 [E,G,]2 [E,G,]2 | [E,G,]2 [A,,A,]2 [A,,A,]2 [A,,A,]2 | %4
 [A,,E,]2 [A,,A,]2 [A,,A,]2 [A,,A,]2 | [C,A,]2 [D,A,]2 [D,A,]2 [D,A,]2 | %6
 [B,,A,]2 [E,A,]2- [E,A,][E,A,] [E,G,]2 | [E,G,]2 [A,,A,]6 | %8
 [A,,A,]2 [A,,A,]2- [A,,A,][A,,A,] A,2 | [A,B,]2 [A,C]2 [A,C]2 [A,C]2 | %10
 [A,,A,]2 [A,,A,]2- [A,,A,][A,,A,] [A,,A,]2 | [C,A,]2 [E,G,]2 [E,G,]2 [E,G,]2 | %12
 [A,,A,]2 [A,,A,]2 [A,,A,]2 [A,,A,]2 | [C,A,]2 [D,A,]2 [D,A,]2 [D,A,]2 | %14
 [B,,A,]2 [E,A,]2- [E,A,][E,A,] [E,G,]2 | [E,G,]2 [A,,A,]6- | [A,,A,]2 z2 z4 |] %17

